apps/statesvisited/state-images/MO.svg

<svg height="635" width="1182" xmlns="http://www.w3.org/2000/svg"><path d="m614.57682 334.05112-3.8606 8.01809 10.0969.29696s2.9696-8.61202 4.4545-10.98774c1.4848-2.37573 4.1575-12.76955 4.1575-12.76955l-5.3454-.29696s-2.0788-8.61202-4.1575-11.28472c-2.0788-2.67269-12.7696-10.98775-12.7696-10.98775l.594-13.9574-6.2363-1.7818s-5.0485-8.90899-7.4242-11.58168c-2.3757-2.6727-8.612-7.72112-8.315-10.09685.2969-2.37573 1.1878-6.83022 1.1878-6.83022s-5.9393-5.04843-10.3938-5.04843-15.7392 1.18787-19.3028 1.18787-39.7935-1.18787-39.7935-1.18787 1.4849 8.90899 4.7515 11.58168c3.2666 2.6727 7.1272 2.07877 7.1272 4.4545s-2.0788 7.72112-.5939 9.79988c1.4848 2.07876 6.2362 5.04842 6.8302 7.12719.5939 2.07876 2.3757 40.98132 2.0787 44.84188-.2969 3.86056.297 10.98775.297 10.98775z" fill="#20639b" fill-rule="evenodd" opacity=".9" stroke="#000"/></svg>

<?xml version="1.0" encoding="UTF-8" standalone="no"?>
<!-- Created with Inkscape (http://www.inkscape.org/) -->
<svg
   xmlns:dc="http://purl.org/dc/elements/1.1/"
   xmlns:cc="http://web.resource.org/cc/"
   xmlns:rdf="http://www.w3.org/1999/02/22-rdf-syntax-ns#"
   xmlns:svg="http://www.w3.org/2000/svg"
   xmlns="http://www.w3.org/2000/svg"
   xmlns:xlink="http://www.w3.org/1999/xlink"
   xmlns:sodipodi="http://sodipodi.sourceforge.net/DTD/sodipodi-0.dtd"
   xmlns:inkscape="http://www.inkscape.org/namespaces/inkscape"
   id="svg1923"
   sodipodi:version="0.32"
   inkscape:version="0.44"
   width="1182"
   height="635"
   version="1.0"
   sodipodi:docbase="/Users/amyshore/Desktop"
   sodipodi:docname="usa.svg">
  <metadata
     id="metadata1928">
    <rdf:RDF>
      <cc:Work
         rdf:about="">
        <dc:format>image/svg+xml</dc:format>
        <dc:type
           rdf:resource="http://purl.org/dc/dcmitype/StillImage" />
      </cc:Work>
    </rdf:RDF>
  </metadata>
  <defs
     id="defs1926" />
  <sodipodi:namedview
     inkscape:window-height="752"
     inkscape:window-width="1280"
     inkscape:pageshadow="2"
     inkscape:pageopacity="0.0"
     guidetolerance="10.0"
     gridtolerance="10.0"
     objecttolerance="10.0"
     borderopacity="1.0"
     bordercolor="#666666"
     pagecolor="#ffffff"
     id="base"
     inkscape:zoom="0.59527559"
     inkscape:cx="775.234"
     inkscape:cy="319.32597"
     inkscape:window-x="0"
     inkscape:window-y="22"
     inkscape:current-layer="layer2" />
  <g
     inkscape:groupmode="layer"
     id="layer1"
     inkscape:label="bg"
     style="opacity:1;display:none"
     sodipodi:insensitive="true">
    <image
       xlink:href="ElectoralCollege1996-Large.png"
       sodipodi:absref="/Users/amyshore/Desktop/ElectoralCollege1996-Large.png"
       width="1182"
       height="635"
       id="image1930"
       x="-1.3571358"
       y="1.6798911" />
  </g>
  <g
     inkscape:groupmode="layer"
     id="layer2"
     inkscape:label="vector"
     style="opacity:0.9;display:inline"> <path style="fill:#20639B;fill-opacity:1;fill-rule:evenodd;stroke:black;stroke-width:1px;stroke-linecap:butt;stroke-linejoin:miter;stroke-opacity:1" d="M 614.57682,334.05112 L 610.71622,342.06921 L 620.81312,342.36617 C 620.81312,342.36617 623.78272,333.75415 625.26762,331.37843 C 626.75242,329.0027 629.42512,318.60888 629.42512,318.60888 L 624.07972,318.31192 C 624.07972,318.31192 622.00092,309.6999 619.92222,307.0272 C 617.84342,304.35451 607.15262,296.03945 607.15262,296.03945 L 607.74662,282.08205 L 601.51032,280.30025 C 601.51032,280.30025 596.46182,271.39126 594.08612,268.71857 C 591.71042,266.04587 585.47412,260.99745 585.77112,258.62172 C 586.06802,256.24599 586.95892,251.7915 586.95892,251.7915 C 586.95892,251.7915 581.01962,246.74307 576.56512,246.74307 C 572.11062,246.74307 560.82592,247.93094 557.26232,247.93094 C 553.69872,247.93094 517.46882,246.74307 517.46882,246.74307 C 517.46882,246.74307 518.95372,255.65206 522.22032,258.32475 C 525.48692,260.99745 529.34752,260.40352 529.34752,262.77925 C 529.34752,265.15498 527.26872,270.50037 528.75362,272.57913 C 530.23842,274.65789 534.98982,277.62755 535.58382,279.70632 C 536.17772,281.78508 537.95952,320.68764 537.66252,324.5482 C 537.36562,328.40876 537.95952,335.53595 537.95952,335.53595 L 614.57682,334.05112 z " id="path12614" />   </g>
</svg>
